assets/image/instagram.svg

<svg width="23" height="23" viewBox="0 0 23 23" fill="none" xmlns="http://www.w3.org/2000/svg">
<g clip-path="url(#clip0_31_409)">
<path d="M21.72 4.55149C21.4097 3.82 20.9501 3.16131 20.3707 2.61752C19.8141 2.07569 19.1623 1.64116 18.448 1.3357C17.6169 1.04833 16.7508 0.874358 15.8731 0.818473H7.1028C6.21819 0.813222 5.34188 0.989249 4.52792 1.3357C3.80517 1.62522 3.15043 2.06171 2.6052 2.61752C2.06098 3.17884 1.62289 3.83407 1.31213 4.55149C1.0282 5.38306 0.857998 6.24919 0.806155 7.12637V15.8742C0.79671 16.7581 0.968926 17.6345 1.31213 18.4491C1.60871 19.1742 2.0485 19.8319 2.6052 20.3831C3.16187 20.9249 3.81367 21.3594 4.52792 21.6649C5.36053 21.9468 6.2259 22.1207 7.1028 22.1821H15.8731C16.7577 22.1874 17.6341 22.0113 18.448 21.6649C19.1708 21.3754 19.8255 20.9389 20.3707 20.3831C20.9326 19.8243 21.3896 19.1693 21.72 18.4491C22.0036 17.6169 22.1774 16.7513 22.2373 15.8742V7.12637C22.2438 6.24163 22.0677 5.36507 21.72 4.55149ZM20.2471 15.8742C20.2516 16.5392 20.1175 17.1978 19.8535 17.8082C19.6803 18.2792 19.421 18.7138 19.0889 19.09C18.74 19.4658 18.2916 19.7348 17.7959 19.8658C17.1695 20.058 16.5253 20.1861 15.8731 20.2481H7.1028C6.44287 20.2496 5.78925 20.1197 5.18008 19.8658C4.70636 19.6862 4.26849 19.4234 3.88701 19.09C3.51275 18.7463 3.247 18.3008 3.12242 17.8082C2.92516 17.1788 2.79329 16.5307 2.72888 15.8742V7.12637C2.72272 6.46122 2.85682 5.80224 3.12242 5.1924C3.29563 4.72142 3.5549 4.28676 3.88701 3.91058C4.23268 3.53083 4.68234 3.26104 5.18008 3.13474C5.80496 2.93694 6.44978 2.80873 7.1028 2.75244H15.8731C16.5336 2.74531 17.1884 2.87549 17.7959 3.13474C18.2696 3.31443 18.7075 3.57716 19.0889 3.91058C19.4632 4.25426 19.7289 4.69978 19.8535 5.1924C20.052 5.8215 20.1839 6.46971 20.2471 7.12637V15.8742Z" fill="white"/>
<path d="M15.0977 11.5002C15.0776 12.4482 14.6921 13.3517 14.0216 14.0222C13.3511 14.6927 12.4476 15.0782 11.4996 15.0983C10.7848 15.1005 10.0854 14.8904 9.49013 14.4947C8.89486 14.0989 8.4305 13.5354 8.15592 12.8754C7.88135 12.2154 7.80893 11.4888 7.94784 10.7876C8.08674 10.0864 8.43073 9.44224 8.93618 8.93679C9.44163 8.43134 10.0858 8.08735 10.787 7.94845C11.4882 7.80954 12.2148 7.88196 12.8748 8.15654C13.5348 8.43111 14.0983 8.89547 14.4941 9.49074C14.8898 10.086 15.0999 10.7854 15.0977 11.5002Z" fill="white"/>
<path d="M19.8538 5.19218C19.7293 4.69956 19.4635 4.25405 19.0893 3.91037C18.7078 3.57694 18.2699 3.31422 17.7962 3.13453C17.1887 2.87528 16.5339 2.7451 15.8735 2.75223H7.10313C6.4501 2.80852 5.80529 2.93673 5.1804 3.13453C4.68266 3.26083 4.23301 3.53062 3.88734 3.91037C3.55522 4.28655 3.29595 4.72121 3.12275 5.19218C2.85714 5.80203 2.72305 6.46101 2.72921 7.12615V15.874C2.79361 16.5305 2.92549 17.1785 3.12275 17.808C3.24733 18.3006 3.51307 18.7461 3.88734 19.0898C4.26881 19.4232 4.70669 19.6859 5.1804 19.8656C5.78957 20.1195 6.44319 20.2494 7.10313 20.2479H15.8735C16.5257 20.1859 17.1699 20.0578 17.7962 19.8656C18.2919 19.7346 18.7403 19.4655 19.0893 19.0898C19.4214 18.7136 19.6806 18.2789 19.8538 17.808C20.1179 17.1976 20.2519 16.539 20.2474 15.874V7.12615C20.1843 6.4695 20.0524 5.82129 19.8538 5.19218ZM11.4995 17.0321C10.7728 17.0351 10.0526 16.894 9.38068 16.6169C8.70879 16.3398 8.09849 15.9322 7.58509 15.4178C7.07169 14.9034 6.66539 14.2922 6.38966 13.6198C6.11393 12.9473 5.97426 12.2269 5.97873 11.5001C6.04298 10.0746 6.65448 8.72873 7.68596 7.74269C8.71744 6.75666 10.0894 6.20637 11.5164 6.20637C12.9434 6.20637 14.3154 6.75666 15.3469 7.74269C16.3783 8.72873 16.9898 10.0746 17.0541 11.5001C17.0601 12.2301 16.9204 12.9541 16.6431 13.6294C16.3658 14.3048 15.9566 14.9181 15.4393 15.4333C14.922 15.9485 14.3071 16.3553 13.6306 16.6298C12.9541 16.9044 12.2296 17.0411 11.4995 17.0321ZM17.1216 7.12615C16.7865 7.11449 16.469 6.97313 16.2362 6.73188C16.0033 6.49064 15.8733 6.16838 15.8735 5.83309C15.8735 5.49313 16.0085 5.1671 16.2489 4.92671C16.4893 4.68632 16.8153 4.55127 17.1553 4.55127C17.4963 4.55126 17.8235 4.68595 18.0657 4.92602C18.3078 5.16609 18.4454 5.4921 18.4483 5.83309C18.4454 6.17513 18.3082 6.50232 18.0664 6.74418C17.8245 6.98604 17.4973 7.12322 17.1553 7.12615H17.1216Z" fill="white"/>
</g>
<defs>
<clipPath id="clip0_31_409">
<rect width="21.3636" height="21.3636" fill="white" transform="translate(0.817749 0.818359)"/>
</clipPath>
</defs>
</svg>

<svg width="23" height="23" fill="none" xmlns="http://www.w3.org/2000/svg"><g clip-path="url(#a)" fill="#fff"><path d="M21.72 4.551a5.711 5.711 0 0 0-1.35-1.933 6.317 6.317 0 0 0-1.922-1.282 9.781 9.781 0 0 0-2.575-.518h-8.77a6.477 6.477 0 0 0-2.575.518 5.622 5.622 0 0 0-1.923 1.282A6.477 6.477 0 0 0 1.312 4.55a9.749 9.749 0 0 0-.506 2.575v8.748c-.01.884.163 1.76.506 2.575a5.825 5.825 0 0 0 1.293 1.934 6.32 6.32 0 0 0 1.923 1.282c.833.282 1.698.456 2.575.517h8.77a6.476 6.476 0 0 0 2.575-.517 5.62 5.62 0 0 0 1.923-1.282 6.621 6.621 0 0 0 1.349-1.934 10.12 10.12 0 0 0 .517-2.575V7.126a6.432 6.432 0 0 0-.517-2.575Zm-1.473 11.323a4.79 4.79 0 0 1-.393 1.934 4.048 4.048 0 0 1-.765 1.282 2.709 2.709 0 0 1-1.293.776c-.627.192-1.27.32-1.923.382h-8.77a4.968 4.968 0 0 1-1.923-.382 4.26 4.26 0 0 1-1.293-.776 2.609 2.609 0 0 1-.765-1.282 9.602 9.602 0 0 1-.393-1.934V7.126a4.734 4.734 0 0 1 .393-1.934c.174-.47.433-.905.765-1.281a2.62 2.62 0 0 1 1.293-.776 8.906 8.906 0 0 1 1.923-.383h8.77a4.768 4.768 0 0 1 1.923.383c.474.18.912.442 1.293.776.374.343.64.789.765 1.281.198.63.33 1.278.393 1.934v8.748Z"/><path d="M15.098 11.5a3.677 3.677 0 0 1-3.598 3.598 3.61 3.61 0 1 1 3.598-3.598Z"/><path d="M19.854 5.192a2.608 2.608 0 0 0-.765-1.282 4.262 4.262 0 0 0-1.293-.775 4.768 4.768 0 0 0-1.922-.383h-8.77a8.906 8.906 0 0 0-1.924.383 2.62 2.62 0 0 0-1.293.775c-.332.377-.591.811-.764 1.282-.266.61-.4 1.269-.394 1.934v8.748c.065.656.196 1.304.394 1.934.124.493.39.938.764 1.282.382.333.82.596 1.293.776.61.253 1.263.383 1.923.382h8.77a9.674 9.674 0 0 0 1.923-.382 2.71 2.71 0 0 0 1.293-.776c.332-.376.592-.811.765-1.282.264-.61.398-1.269.393-1.934V7.126a9.416 9.416 0 0 0-.393-1.934ZM11.5 17.032A5.498 5.498 0 0 1 5.978 11.5a5.543 5.543 0 0 1 11.075 0 5.487 5.487 0 0 1-5.554 5.532Zm5.622-9.906a1.293 1.293 0 0 1-.873-2.2c.24-.24.566-.375.906-.375a1.293 1.293 0 0 1 1.293 1.282 1.304 1.304 0 0 1-1.293 1.293h-.033Z"/></g><defs><clipPath id="a"><path fill="#fff" transform="translate(.818 .818)" d="M0 0h21.364v21.364H0z"/></clipPath></defs></svg>
